X: 23260
T: Leaving Lerwick Harbour
R: reel
M: 4/4
K: Gminor
F|B3 d/c/ B3F|G2 B2 F3D|E3G F2 D2|C4C2 F2|
B3 d/c/ B3F|G2 B2 F3D|E2 C2 F2 D2|B,4B,3:|
d/e/|f3d B3F|G2 B2 e2 g2|f3B F2 D2|C4 C3 d/e/|
f3d B3F|G2 B2 [G,2E2] [B2g2]|[A2f2] F2 [F2d2] [E2c2]|[D4B4] [D3B3] d/e/|
f3d B3F|G2 B2 e2 g2|f3B F2 D2|C4C2 F2|
B3 d/c/ B3F|G2 B2 F3D|E2 C2 F2 D2|B,4B,3||

